svg/k8s-netpol.svg

<?xml version="1.0" encoding="UTF-8"?>
<svg xmlns="http://www.w3.org/2000/svg" xmlns:xlink="http://www.w3.org/1999/xlink" width="32.978001" height="32" viewBox="0 0 32.978001 32">
<path fill-rule="nonzero" fill="rgb(19.607843%, 42.352941%, 89.803922%)" fill-opacity="1" d="M 16.378906 0.847656 C 16.105469 0.863281 15.835938 0.933594 15.585938 1.046875 L 4.722656 6.238281 C 4.152344 6.507812 3.742188 7.023438 3.597656 7.632812 L 0.917969 19.292969 C 0.78125 19.90625 0.929688 20.546875 1.320312 21.035156 L 8.835938 30.382812 C 9.230469 30.871094 9.828125 31.15625 10.460938 31.15625 L 22.515625 31.15625 C 23.148438 31.15625 23.746094 30.871094 24.140625 30.382812 L 31.65625 21.03125 C 32.050781 20.542969 32.195312 19.898438 32.054688 19.289062 L 29.371094 7.632812 C 29.230469 7.019531 28.816406 6.507812 28.25 6.238281 L 17.386719 1.046875 C 17.074219 0.898438 16.726562 0.828125 16.378906 0.84375 "/>
<path fill-rule="nonzero" fill="rgb(100%, 100%, 100%)" fill-opacity="1" d="M 16.375 0.00390625 C 16.082031 0.0195312 15.796875 0.09375 15.535156 0.21875 L 4.066406 5.691406 C 3.46875 5.976562 3.035156 6.519531 2.882812 7.167969 L 0.0546875 19.472656 C -0.09375 20.121094 0.0625 20.796875 0.476562 21.316406 L 8.410156 31.183594 C 8.828125 31.699219 9.460938 32 10.125 32 L 22.851562 32 C 23.515625 32 24.148438 31.699219 24.566406 31.183594 L 32.5 21.3125 C 32.914062 20.796875 33.070312 20.117188 32.921875 19.472656 L 30.09375 7.164062 C 29.945312 6.519531 29.507812 5.976562 28.90625 5.691406 L 17.441406 0.214844 C 17.109375 0.0585938 16.742188 -0.015625 16.375 0 M 16.382812 0.847656 C 16.730469 0.828125 17.074219 0.898438 17.386719 1.046875 L 28.25 6.234375 C 28.816406 6.503906 29.230469 7.015625 29.375 7.628906 L 32.058594 19.285156 C 32.199219 19.898438 32.050781 20.542969 31.65625 21.03125 L 24.140625 30.378906 C 23.742188 30.867188 23.144531 31.152344 22.515625 31.152344 L 10.460938 31.15625 C 9.832031 31.152344 9.238281 30.871094 8.839844 30.382812 L 1.324219 21.035156 C 0.929688 20.546875 0.78125 19.902344 0.921875 19.289062 L 3.601562 7.632812 C 3.742188 7.023438 4.15625 6.507812 4.722656 6.238281 L 15.585938 1.046875 C 15.835938 0.925781 16.105469 0.859375 16.382812 0.847656 M 15.539062 7.640625 C 11.308594 7.636719 7.875 11.066406 7.871094 15.300781 C 7.871094 19.535156 11.300781 22.964844 15.535156 22.96875 C 16.457031 22.964844 17.367188 22.796875 18.230469 22.472656 L 18.230469 20.664062 C 18.230469 20.050781 18.730469 19.019531 19.34375 19.019531 L 19.34375 17.34375 C 19.34375 16.503906 20.597656 15.082031 22.136719 15.082031 C 22.515625 15.082031 22.871094 15.160156 23.199219 15.292969 C 23.191406 11.066406 19.765625 7.644531 15.539062 7.640625 M 17.066406 10.320312 L 19.75 13.003906 L 17.835938 13.003906 L 17.835938 16.070312 L 16.300781 16.070312 L 16.300781 13.003906 L 14.386719 13.003906 Z M 13.238281 14.535156 L 14.769531 14.535156 L 14.769531 17.601562 L 16.6875 17.601562 L 14 20.285156 L 11.320312 17.601562 L 13.238281 17.601562 Z M 22.332031 16.4375 C 21.238281 16.4375 20.351562 17.324219 20.351562 18.417969 L 20.351562 19.609375 C 20.140625 19.605469 19.9375 19.691406 19.789062 19.839844 C 19.640625 19.988281 19.558594 20.1875 19.558594 20.398438 L 19.558594 23.570312 C 19.558594 24.007812 19.914062 24.363281 20.351562 24.363281 L 24.3125 24.363281 C 24.75 24.359375 25.101562 24.007812 25.105469 23.570312 L 25.105469 20.398438 C 25.101562 19.960938 24.746094 19.609375 24.3125 19.609375 L 24.3125 18.417969 C 24.3125 17.324219 23.425781 16.4375 22.332031 16.4375 M 22.332031 17.230469 C 22.648438 17.230469 22.949219 17.355469 23.171875 17.578125 C 23.394531 17.800781 23.519531 18.101562 23.519531 18.417969 L 23.519531 19.605469 L 21.144531 19.605469 L 21.144531 18.417969 C 21.144531 17.761719 21.675781 17.230469 22.332031 17.230469 "/>
</svg>

<svg role="img" viewBox="0 0 32.978 32" xmlns="http://www.w3.org/2000/svg"><path d="M16.379.848a2.1 2.1 0 0 0-.793.199L4.723 6.238c-.57.27-.98.785-1.125 1.395l-2.68 11.66a2.07 2.07 0 0 0 .402 1.742l7.516 9.348c.394.488.992.773 1.625.773h12.055c.632 0 1.23-.285 1.625-.773l7.515-9.352a2.04 2.04 0 0 0 .399-1.742L29.37 7.633a2.05 2.05 0 0 0-1.121-1.395L17.387 1.047a2.1 2.1 0 0 0-1.008-.203" fill="rgb(19.607843%, 42.352942%, 89.803922%)"/><path d="M16.375.004a2.2 2.2 0 0 0-.84.215L4.066 5.69a2.19 2.19 0 0 0-1.183 1.477L.055 19.473a2.17 2.17 0 0 0 .422 1.843l7.933 9.868c.418.515 1.05.816 1.715.816h12.727c.664 0 1.296-.3 1.714-.816l7.934-9.872c.414-.515.57-1.195.422-1.84L30.094 7.165a2.17 2.17 0 0 0-1.188-1.473L17.441.215A2.3 2.3 0 0 0 16.375 0m.008.848c.347-.02.691.05 1.004.199L28.25 6.234c.566.27.98.782 1.125 1.395l2.684 11.656a2.05 2.05 0 0 1-.403 1.746l-7.515 9.348a2.1 2.1 0 0 1-1.625.773l-12.055.004a2.09 2.09 0 0 1-1.621-.773l-7.516-9.348a2.05 2.05 0 0 1-.402-1.746l2.68-11.656a2.06 2.06 0 0 1 1.12-1.395l10.864-5.191c.25-.121.52-.188.797-.2m-.844 6.794c-4.23-.004-7.664 3.425-7.668 7.66a7.67 7.67 0 0 0 7.664 7.668 7.8 7.8 0 0 0 2.695-.496v-1.809c0-.613.5-1.644 1.114-1.644v-1.676c0-.84 1.254-2.262 2.793-2.262.379 0 .734.078 1.062.211a7.666 7.666 0 0 0-7.66-7.652m1.527 2.68 2.684 2.683h-1.914v3.066H16.3v-3.066h-1.914Zm-3.828 4.214h1.532v3.067h1.918L14 20.285l-2.68-2.683h1.918Zm9.094 1.902a1.98 1.98 0 0 0-1.98 1.981v1.191a.786.786 0 0 0-.793.79v3.171c0 .438.355.793.793.793h3.96a.8.8 0 0 0 .793-.793v-3.172a.795.795 0 0 0-.793-.789v-1.191a1.98 1.98 0 0 0-1.98-1.98m0 .792a1.185 1.185 0 0 1 1.188 1.188v1.187h-2.375v-1.187c0-.656.53-1.188 1.187-1.188" fill="rgb(100%, 100%, 100%)"/></svg>
